!!!!SEGMENT: pl-kozmzk--mzk-m-280--002_gizycka-zamoyska-ludmila--trois-improvisations-chansonnette.krn
!!!cenid: 18xx:3049
!!!COM: Giżycka-Zamoyska, Ludmiła
!!!COM-rismid: pe30110123
!!!CDT:
!!!CNT:
!!!GTL: Trois Improvisations
!!!OTL: Chansonnette
!!!PDT:
!!!AGN: Secular; Improvization
!!!SMS-siglum: PL-KOZmzk
!!!SMS-shelfmark: mzk/m/280
!!!SMS-shelfwork: 002 G
!!!SMS-variant:
!!!SMS-altvar:
!!!NIFC-rismid: 1001099002
!!!URL-scan: https://repozytorium.nifc.pl/islandora/object/pl-kozmzk%3A5612/datastream/PDF/view
!!!ONB-nifc:
!!!OMD: Andantino.
**kern	**kern	**dynam	**kern	**text	**dynam
*part3	*part2	*part2	*part1	*part1	*part1
*staff3	*staff2	*	*staff1	*staff1	*
*Ipiano	*Ipiano	*	*Iempty	*	*
*I"Piano.	*I"Piano.	*	*I"Chant.	*	*
*clefF4	*clefG2	*	*clefG2	*	*
*k[b-e-a-]	*k[b-e-a-]	*	*k[b-e-a-]	*	*
*C:	*C:	*	*C:	*	*
*M3/4	*M3/4	*	*M3/4	*	*
=1	=1	=1	=1	=1	=1
*^	*^	*	*	*	*
*	*	*	*^	*	*	*	*
2.GG/	2CC\	4r	4rddyy	4rgyy	p	2.r	.	.
.	.	(16qqG/LL	.	.	.	.	.	.
.	.	16qqc/	.	.	.	.	.	.
.	.	16qqe-/JJ	.	.	.	.	.	.
.	.	2g/)	2g\	4rgyy	.	.	.	.
.	4E-\	.	.	4G\ 4c 4e-	.	.	.	.
=2	=2	=2	=2	=2	=2	=2	=2	=2
2.GG/	2CC\	4ryy	4r	4rgyy	.	2.r	.	.
.	.	(16qqG/LL	.	.	.	.	.	.
.	.	16qqc/	.	.	.	.	.	.
.	.	16qqe-/JJ	.	.	.	.	.	.
.	.	2g/)	2g\	4rgyy	.	.	.	.
.	4E-\	.	.	4G\ 4c 4e-	.	.	.	.
=3	=3	=3	=3	=3	=3	=3	=3	=3
*	*	*	*	*	*	*Xbrackettup	*	*
!	!	!	!	!	!	!LO:TX:t=P:problem:klamra łukowa	!	!LO:DY:a
2.GG/	2CC\	4ryy	4r	4rgyy	p	12g/	Ah!	p
.	.	.	.	.	.	12c/	dans	.
.	.	.	.	.	.	12d/	les	.
.	.	(16qqG/LL	.	.	.	.	.	.
.	.	16qqc/	.	.	.	.	.	.
.	.	16qqe-/JJ	.	.	.	.	.	.
.	.	2g/)	2g\	4rgyy	.	4e-/	bons	.
.	4D\	.	.	4G\ 4Bn 4f	.	4d/	vieux-	.
=4	=4	=4	=4	=4	=4	=4	=4	=4
2.GG/	2CC\	4ryy	4r	4rgyy	.	2c/	-tems,	.
.	.	(16qqG/LL	.	.	.	.	.	.
.	.	16qqc/	.	.	.	.	.	.
.	.	16qqe-/JJ	.	.	.	.	.	.
.	.	2g/)	2g\	4rgyy	.	.	.	.
.	4E-\	.	.	4G\ 4c 4e-	.	4r	.	.
!!linebreak:original
=5	=5	=5	=5	=5	=5	=5	=5	=5
!	!	!	!	!	!	!LO:TX:t=P:problem:klamra łukowa	!	!
2.BB-/	2BBB-\	4ryy	4r	4rgyy	.	12B-/	les	.
.	.	.	.	.	.	12c/	cha-	.
.	.	.	.	.	.	12d/	-leu-	.
.	.	(<16qqA-/LL	.	.	.	.	.	.
.	.	16qqB-/	.	.	.	.	.	.
.	.	16qqd/JJ	.	.	.	.	.	.
.	.	2a-/)	2a-\	4rgyy	.	4e-/	-reux	.
.	4D\	.	.	4A-\ 4B- 4d	.	4f/	a-	.
=6	=6	=6	=6	=6	=6	=6	=6	=6
2.BB-/	2EE-\	4ryy	4r	4rgyy	.	2g/	-mants	.
.	.	(16qqG/LL	.	.	.	.	.	.
.	.	16qqB-/	.	.	.	.	.	.
.	.	16qqe-/JJ	.	.	.	.	.	.
.	.	2g/)	2g\	4rgyy	.	.	.	.
.	4E-\	.	.	4G\ 4B- 4e-	.	4r	.	.
=7	=7	=7	=7	=7	=7	=7	=7	=7
!	!	!	!	!	!	!LO:TX:t=P:problem:klamra łukowa	!	!
2.GG/	2GGG\	4ryy	4r	4rgyy	.	12g/	n’é-	.
.	.	.	.	.	.	12d/	-tou-	.
.	.	.	.	.	.	12e-/	-ffaient	.
.	.	(16qqF/LL	.	.	.	.	.	.
.	.	16qqBn/	.	.	.	.	.	.
.	.	16qqd/JJ	.	.	.	.	.	.
.	.	2g/)	2g\	4rgyy	.	4f/	pas	.
.	4D\	.	.	4F\ 4Bn 4d	.	4e-/	lex	.
=8	=8	=8	=8	=8	=8	=8	=8	=8
2.GG/	2CC\	4ryy	4r	4rgyy	.	2d/	flam-	.
.	.	(16qqG/LL	.	.	.	.	.	.
.	.	16qqc/	.	.	.	.	.	.
.	.	16qqe-/JJ	.	.	.	.	.	.
.	.	2g/)	2g\	4rgyy	.	.	.	.
.	4E-\	.	.	4G\ 4c 4e-	.	4c/	-mes,	.
=9	=9	=9	=9	=9	=9	=9	=9	=9
!	!	!	!	!	!	!LO:TX:t=P:problem:klamra łukowa	!	!
2.AA-/	2AAA-\	4ryy	4r	4rgyy	.	12e-/	qui	.
.	.	.	.	.	.	12d/	con-	.
.	.	.	.	.	.	12c/	-su-	.
.	.	(16qqF#X/LL	.	.	<	.	.	.
.	.	16qqc/	.	.	.	.	.	.
.	.	16qqe-/JJ	.	.	.	.	.	.
!	!	!	!	!	!	!	!	!LO:HP:a
.	.	2f#X/)	2f#\	4rgyy	.	4Bn/	-maient	<
.	4C\	.	.	4F#X\ 4c 4e-	[[	4c/	leur	[[
*v	*v	*	*	*	*	*	*	*
!!linebreak:original
=10	=10	=10	=10	=10	=10	=10	=10
4GGG/ [4GG	4ryy	4rdd]	4rgyy	.	2g/	coeur	.
.	(16qqBn/LL	.	.	>	.	.	.
.	16qqd/	.	.	.	.	.	.
.	16qqf/JJ	.	.	.	.	.	.
2GG;</] 2Fn	2bn;/)	2bn\	4rgyy	.	.	.	.
.	.	.	4Bn\ 4d 4f	]]	4r	.	.
=11	=11	=11	=11	=11	=11	=11	=11
*^	*	*	*	*	*	*	*
!	!	!	!	!	!	!LO:TX:t=P:problem:klamra łukowa	!	!LO:DY:a
2GG/	2CC\	4r	4rdd	4rgyy	p	12g/	et	p
.	.	.	.	.	.	12c/	pour	.
.	.	.	.	.	.	12d/	com-	.
.	.	(16qqG/LL	.	.	.	.	.	.
.	.	16qqc/	.	.	.	.	.	.
.	.	16qqen/JJ	.	.	.	.	.	.
.	.	2g/)	2g\	4rgyy	.	4en/	-plaire	.
4GGG/ 4GG	4ryy	.	.	4G\ 4Bn 4f	.	4d/	aux	.
*v	*v	*	*	*	*	*	*	*
=12	=12	=12	=12	=12	=12	=12	=12
2AAAn/ 2AAn	4ryy	4rdd	4rgyy	.	2c#X/	da-	.
.	(16qqG/LL	.	.	.	.	.	.
.	16qqc#X/	.	.	.	.	.	.
.	16qqen/JJ	.	.	.	.	.	.
.	2an/)	2an\	4rgyy	.	.	.	.
4CC#X/ 4C#X	.	.	4G\ 4c#X 4en	.	4en/	-mes	.
=13	=13	=13	=13	=13	=13	=13	=13
!	!	!	!	!	!LO:TX:t=P:problem:klamra łukowa	!	!
2DD/ 2AAn	4r	4rdd	4rgyy	.	12d/	chan-	.
.	.	.	.	.	12c#X/	-taient	.
.	.	.	.	.	12d/	a-	.
.	(16qqAn/LL	.	.	.	.	.	.
.	16qqd/	.	.	.	.	.	.
.	16qqf/JJ	.	.	.	.	.	.
!	!	!	!	!	!	!	!LO:HP:a
.	2an/)	2an\	4rgyy	.	4f/	-vec	< [
4EEn/ 4En	.	.	4An\ 4c#X 4g	.	4en/	ar-	.
!!linebreak:original
=14	=14	=14	=14	=14	=14	=14	=14
2DD/ 2D	4ryy	4r	4rgyy	.	2an/	-deur:	.
.	(16qqAn/LL	.	.	.	.	.	.
.	16qqd/	.	.	.	.	.	.
.	16qqf/JJ	.	.	.	.	.	.
.	2an/)	2an\	4rgyy	.	.	.	.
4FF/ 4F	.	.	4An\ 4d 4f	.	4r	.	.
=15	=15	=15	=15	=15	=15	=15	=15
!	!	!	!	!	!LO:TX:t=P:problem:klamra łukowa	!	!LO:DY:a
2FF#X/ 2E-	4ryy	4r	4rgyy	.	12an/	„A-	f
.	.	.	.	.	12g#X/	-hi!	.
.	.	.	.	.	12a/	mes	.
.	(16qqAn/LL	.	.	.	.	.	.
.	16qqc/	.	.	.	.	.	.
.	16qqe-/JJ	.	.	.	.	.	.
.	2an/)	2an\	4rgyy	.	4bn\	Da-	.
4F#X\	.	.	4An\ 4c 4e-	.	4cc\	-moi-	.
=16	=16	=16	=16	=16	=16	=16	=16
(>2GG/ 2En	4ryy	4r	4rgyy	.	2cc\	-se-	.
.	(16qqG/LL	.	.	.	.	.	.
.	16qqc/	.	.	.	.	.	.
.	16qqen/JJ	.	.	.	.	.	.
.	2g/)	2g\	4rgyy	.	.	.	.
4GGG/) 4GG	.	.	4G\ 4B- 4en	.	4g/	-les,	.
=17	=17	=17	=17	=17	=17	=17	=17
*^	*	*	*	*	*	*	*
!	!	!	!	!	!	!LO:TX:t=P:problem:klamra łukowa	!	!
2.AA-/	2AAA-\	4ryy	4r	4rgyy	.	12e-X/	vous	.
.	.	.	.	.	.	12d/	ê-	.
.	.	.	.	.	.	12c/	-tes	.
.	.	(16qqF#X/LL	.	.	.	.	.	.
.	.	16qqc/	.	.	.	.	.	.
.	.	16qqe-/JJ	.	.	.	.	.	.
.	.	2f#X/)	2f#\	4rgyy	.	4Bn/	bel-	.
.	4AA-\	.	.	4F#X\ 4c 4e-	.	4c/	-les,	.
*v	*v	*	*	*	*	*	*	*
*	*v	*v	*v	*	*	*	*
=18	=18	=18	=18	=18	=18
4GGG/ [4GG	4r	ff	2an/	bel-	.
2GG;</] 2Fn	2Bn;:/ 2d: 2f: 2bn:	.	.	.	.
.	.	.	4g;/	-les!”	.
!!pagebreak:original
=19	=19	=19	=19	=19	=19
*^	*^	*	*	*	*
*	*	*	*^	*	*	*	*
!	!	!	!	!	!	!LO:TX:t=P:problem:klamra łukowa	!	!LO:DY:a
2.GG/	2CC\	4r	4rddyy	4rgyy	p	12g/	Au-	p
.	.	.	.	.	.	12c/	-jour-	.
.	.	.	.	.	.	12d/	-d’hui	.
.	.	(16qqG/LL	.	.	.	.	.	.
.	.	16qqc/	.	.	.	.	.	.
.	.	16qqe-/JJ	.	.	.	.	.	.
.	.	2g/)	2g\	4rgyy	.	4e-/	en	.
.	4D\	.	.	4G\ 4Bn 4f	.	4d/	trou-	.
=20	=20	=20	=20	=20	=20	=20	=20	=20
2.GG/	2CC\	4ryy	4r	4rgyy	.	2c/	-vant	.
.	.	(16qqG/LL	.	.	.	.	.	.
.	.	16qqc/	.	.	.	.	.	.
.	.	16qqe-/JJ	.	.	.	.	.	.
.	.	2g/)	2g\	4rgyy	.	.	.	.
.	4E-\	.	.	4G\ 4c 4e-	.	4r	.	.
=21	=21	=21	=21	=21	=21	=21	=21	=21
!	!	!	!	!	!	!LO:TX:t=P:problem:klamra łukowa	!	!
2.BB-/	2BBB-\	4ryy	4r	4rgyy	.	12B-/	un	.
.	.	.	.	.	.	12c/	an-	.
.	.	.	.	.	.	12d/	-ge	.
.	.	(<16qqA-/LL	.	.	.	.	.	.
.	.	16qqB-/	.	.	.	.	.	.
.	.	16qqd/JJ	.	.	.	.	.	.
.	.	2a-/)	2a-\	4rgyy	.	4e-/	ra-	.
.	4D\	.	.	4A-\ 4B- 4d	.	4f/	-vis-	.
=22	=22	=22	=22	=22	=22	=22	=22	=22
2.BB-/	2EE-\	4ryy	4r	4rgyy	.	2g/	-sant,	.
.	.	(16qqG/LL	.	.	.	.	.	.
.	.	16qqB-/	.	.	.	.	.	.
.	.	16qqe-/JJ	.	.	.	.	.	.
.	.	2g/)	2g\	4rgyy	.	.	.	.
.	4E-\	.	.	4G\ 4B- 4e-	.	4r	.	.
!!linebreak:original
=23	=23	=23	=23	=23	=23	=23	=23	=23
!	!	!	!	!	!	!LO:TX:t=P:problem:klamra łukowa	!	!
2.GG/	2GGG\	4ryy	4r	4rgyy	.	12g/	j’ai	.
.	.	.	.	.	.	12d/	oub-	.
.	.	.	.	.	.	12e-/	-li-	.
.	.	(16qqF/LL	.	.	.	.	.	.
.	.	16qqBn/	.	.	.	.	.	.
.	.	16qqd/JJ	.	.	.	.	.	.
.	.	2g/)	2g\	4rgyy	.	4f/	-é	.
.	4D\	.	.	4F\ 4Bn 4d	.	4e-/	la	.
=24	=24	=24	=24	=24	=24	=24	=24	=24
2.GG/	2CC\	4ryy	4r	4rgyy	.	2d/	ter-	.
.	.	(16qqG/LL	.	.	.	.	.	.
.	.	16qqc/	.	.	.	.	.	.
.	.	16qqe-/JJ	.	.	.	.	.	.
.	.	2g/)	2g\	4rgyy	.	.	.	.
.	4E-\	.	.	4G\ 4c 4e-	.	4c/	-re,	.
=25	=25	=25	=25	=25	=25	=25	=25	=25
!	!	!	!	!	!	!LO:TX:t=P:problem:klamra łukowa	!	!
2.AA-/	2AAA-\	4ryy	4r	4rgyy	.	12e-/	ses	.
.	.	.	.	.	.	12d/	lar-	.
.	.	.	.	.	.	12c/	-mes,	.
.	.	(16qqF#X/LL	.	.	.	.	.	.
.	.	16qqc/	.	.	.	.	.	.
.	.	16qqe-/JJ	.	.	.	.	.	.
.	.	2f#X/)	2f#\	4rgyy	.	4Bn/	ses	.
.	4C\	.	.	4F#X\ 4c 4e-	.	4c/	mi-	.
*v	*v	*	*	*	*	*	*	*
*	*v	*v	*v	*	*	*	*
=26	=26	=26	=26	=26	=26
4GGG/ [4GG	4r	.	2a-/	-sè-	.
2GG;/] 2Fn	2Bn;:/ 2d: 2f: 2bn:	.	.	.	.
.	.	.	4g/	-res;	.
=27	=27	=27	=27	=27	=27
*^	*^	*	*	*	*
*	*	*	*^	*	*	*	*
!	!	!	!	!	!	!LO:TX:t=P:problem:klamra łukowa	!	!LO:DY:a
2.GG/	2CC\	4r	4rddyy	4rgyy	pp	12g/	mais	pp
.	.	.	.	.	.	12c/	chut!	.
.	.	.	.	.	.	12d/	de	.
.	.	(16qqG/LL	.	.	.	.	.	.
.	.	16qqc/	.	.	.	.	.	.
.	.	16qqen/JJ	.	.	.	.	.	.
.	.	2g/)	2g\	4rgyy	.	4en/	son	.
.	4GGG\ 4GG	.	.	4G\ 4Bn 4f	.	4d/	doux	.
*v	*v	*	*	*	*	*	*	*
!!linebreak:original
=28	=28	=28	=28	=28	=28	=28	=28
2AAAn/ 2AAn	4ryy	4r	4rgyy	.	2c#X/	nom,	.
.	(16qqG/LL	.	.	.	.	.	.
.	16qqc#X/	.	.	.	.	.	.
.	16qqen/JJ	.	.	.	.	.	.
.	2an/)	2an\	4rgyy	.	.	.	.
4CC#X/ 4C#X	.	.	4G\ 4c#X 4en	.	4r	.	.
=29	=29	=29	=29	=29	=29	=29	=29
!	!	!	!	!	!LO:TX:t=P:problem:klamra łukowa	!	!
2DD/ 2AAn	4ryy	4r	4rgyy	.	12d/	re-	.
.	.	.	.	.	12c#X/	-gard,	.
.	.	.	.	.	12d/	sou-	.
.	(16qqAn/LL	.	.	.	.	.	.
.	16qqd/	.	.	.	.	.	.
.	16qqf/JJ	.	.	.	.	.	.
.	2an/)	2an\	4rgyy	.	4f/	-ri-	.
4EEn/ 4En	.	.	4An\ 4c#X 4g	.	4en/	-te,	.
=30	=30	=30	=30	=30	=30	=30	=30
2FF/ 2D	4ryy	4r	4rgyy	.	2an/	front....	.
.	(16qqAn/LL	.	.	.	.	.	.
.	16qqd/	.	.	.	.	.	.
.	16qqf/JJ	.	.	.	.	.	.
.	2an/)	2an\	4rgyy	.	.	.	.
4FF/ 4F	.	.	4An\ 4d 4f	.	4r	.	.
=31	=31	=31	=31	=31	=31	=31	=31
!	!	!	!	!	!LO:TX:t=P:problem:klamra łukowa	!	!
2FF#X/ 2E-	4ryy	4r	4rgyy	.	12an/	car	.
.	.	.	.	.	12g#X/	hé-	.
.	.	.	.	.	12a/	-las!	.
.	(16qqF#X/LL	.	.	<	.	.	.
.	16qqc/	.	.	.	.	.	.
.	16qqe-/JJ	.	.	.	.	.	.
!	!	!	!	!	!	!	!LO:HP:a
.	2f#X/)	2f#\	4rgyy	.	4bn\	pour	<
4F#X\	.	.	4An\ 4c 4e-	[[	4cc\	lui	[
!!linebreak:original
=32	=32	=32	=32	=32	=32	=32	=32
!	!	!	!	!	!	!	!LO:FP:a
[2GG/ 2En	4ryy	4r	4rgyy	>	2cc\	plai-	>
.	(16qqG/LL	.	.	.	.	.	.
.	16qqc/	.	.	.	.	.	.
.	16qqen/JJ	.	.	.	.	.	.
.	2g/)	2g\	4rgyy	.	.	.	.
4GGG/ 4GG]	.	.	4G\ 4c 4en	]	4g/	-re,	]]
=33	=33	=33	=33	=33	=33	=33	=33
!	!	!	!	!	!LO:TX:t=P:problem:klamra łukowa	!	!LO:DY:a
2AAA-/ 2AA-	4ryy	4r	4rgyy	.	12e-X/	il	p
.	.	.	.	.	12d/	faut	.
.	.	.	.	.	12c/	se	.
.	(16qqF#X/LL	.	.	.	.	.	.
.	16qqc/	.	.	.	.	.	.
.	16qqe-X/JJ	.	.	.	.	.	.
.	2f#X/)	2f#\	4rgyy	.	4Bn/	tai-	.
4AA-/	.	.	4F#X\ 4c 4e-	.	4c/	-re,	.
*	*	*v	*v	*	*	*	*
=34	=34	=34	=34	=34	=34	=34
*^	*	*	*	*	*	*
!	!	!	!	!	!	!	!LO:DY:a
!	!	!LO:TX:t=P:problem:klamra łukowa	!	!	!	!	!LO:DY:a
2En:/ 2G:	2GGG\ [2GG	12en:/L	2c:\	.	2.g/	tai-	pp > ]]
.	.	12d/	.	p	.	.	.
.	.	12c/J	.	.	.	.	.
.	.	2d\	.	.	.	.	.
4ryy	4GG\] 4Fn	.	4fn\ 4bn	.	.	.	.
*v	*v	*	*	*	*	*	*
*	*v	*v	*	*	*	*
=35	=35	=35	=35	=35	=35
2C\ 2G	2.en/ 2.g 2.cc	.	4c/	-re.	.
.	.	.	4r	.	.
[4CC/	.	.	4r	.	.
=36	=36	=36	=36	=36	=36
*	*8va	*	*	*	*
2.CC:/] 2.GG: 2.En:	2.ccc:\ 2.eeen: 2.ggg: 2.cccc:	.	2.r	.	.
*	*X8va	*	*	*	*
==	==	==	==	==	==
*-	*-	*-	*-	*-	*-
!!!system-decoration: s1[(s2,s3)]
!!!RDF**kern: > = above
!!!RDF**kern: < = below
!!!AIN: 1 empty 2 piano
!!!ENC: Katarzyna Serwa
!!!END: 2021-10-24
!!!ENC: Marcin Jachim
!!!END: 2021-09-09
!!!RDF**kern: > = above
!!!RDF**kern: < = below
